src/assets/svg/ic_clock_timezone.svg

<svg xmlns="http://www.w3.org/2000/svg" width="16" height="16">
    <g fill="#3d464d">
        <path d="M10.978 5.048v-.025A5.5 5.5 0 002.766.729c.176.004.35.026.521.068.181.047.353.053.537.025A2.43 2.43 0 014.175.79c.232 0 .434.056.613.168.029.019.142.051.212.013.142-.075.332-.059.479-.028.045.01.091.02.136.022l.05.003c.038 0 .05-.007.05-.007a.321.321 0 01.26-.256l.061-.007c.031 0 .184.009.223.188a.25.25 0 01.177-.081h.082l.09.076a.237.237 0 01.066.194c-.017.116-.112.172-.162.203-.102.105-.263.107-.391.102l-.01.018.001.001-.042.063-.058.015-.015.004-.005.001c-.033.013-.062.013-.079.013v-.003c-.024.005-.047.007-.069.009l-.002-.006a.566.566 0 01-.164.015v.072l-.081.012a.28.28 0 01-.094.193c.048.019.088.045.121.064.02.013.044.029.056.032.037.01.137.035.203.117.061-.053.123-.085.165-.107l.221-.03-.193-.009a.51.51 0 01.516-.491.51.51 0 01.267.073c.036.02.112.065.151.141l.196-.089.1.148c.052.093.063.183.073.254.003.026.006.053.012.078.003.009.005.014.006.022.114.014.206.11.216.231a.299.299 0 01-.169.292 1.149 1.149 0 01-.555.163h-.041a.098.098 0 01-.006.023l.061.041.028.176-.189.168c-.135-.032-.24-.019-.335.046-.082.055-.166.104-.249.155-.164.1-.318.192-.451.312a.54.54 0 01-.22.347.974.974 0 01-.173.107c-.05.027-.097.054-.133.081-.011.033-.007.078.006.157l.008.06c.031.316-.158.37-.217.379l-.046.003c-.073 0-.202-.028-.248-.224a.286.286 0 01-.032-.161.577.577 0 00-.13-.035.312.312 0 01-.332.083c-.185-.059-.289.11-.312.178l-.025.074c-.044.123-.059.177-.033.241.009.02.03.064.041.077.072-.009.089-.033.097-.044.025-.062.075-.173.218-.207.096-.031.217-.04.307.029.041.032.164.15.054.343a.309.309 0 01-.029.069.315.315 0 01.218.11c.057.073.075.168.052.28l-.014.067c-.019.075-.024.11-.019.129.04.021.068.049.089.076l.17.055c.014 0 .022-.008.041-.005.12-.224.339-.234.518-.245l.03.008c.014-.005.031 0 .052 0h.037l.034.017c.078.071.18.08.297.097.124.018.263.036.381.13.14.163.251.25.441.26.03.001.125.047.233.106a5.496 5.496 0 00-1.624 2.16c-.013-.121-.027-.229-.043-.235-.252-.102-.359-.309-.456-.491-.025-.048-.05-.096-.077-.142a.844.844 0 01-.051-.099c-.027-.06-.05-.112-.093-.144-.036-.028-.12-.13-.077-.216.027-.051.026-.114.026-.186-.001-.12-.003-.268.134-.389.114-.1.144-.215.096-.351l-.104.056a.235.235 0 01-.227-.039l-.028-.012c-.11-.054-.278-.141-.355-.35-.007-.009-.05-.032-.078-.049-.028-.018-.057-.035-.084-.054-.144-.1-.312-.144-.489-.189-.063-.018-.127-.034-.191-.054a1.21 1.21 0 01-.304-.149c-.093-.059-.3-.191-.215-.474a.137.137 0 01-.03-.029l-.07.334-.254-.424-.049-.076c-.069-.104-.152-.229-.158-.393a.386.386 0 01-.038-.254c-.222-.177-.213-.422-.207-.583l.003-.089c0-.116.065-.191.115-.232.011-.027.024-.055.039-.084.048-.087.106-.162.163-.232.05-.062.099-.122.128-.184l.05-.101c-.057-.131-.028-.268-.009-.358l.011-.055.136.024v-.073l-.126.011-.007-.007-.096-.007-.075-.107c-.013-.026-.027-.061-.147-.063l-.176.008c-.138.008-.269.014-.365.08a.76.76 0 01-.153.07 1.136 1.136 0 01-.112.032c-.019.004-.037.01-.055.015a.658.658 0 01-.235.132A5.474 5.474 0 000 5.5a5.502 5.502 0 005.022 5.479h.025a5.48 5.48 0 005.453 4.996 5.48 5.48 0 005.475-5.475 5.48 5.48 0 00-4.997-5.452zm-.478 9.927c-2.467 0-4.475-2.007-4.475-4.475S8.033 6.025 10.5 6.025s4.475 2.007 4.475 4.475-2.008 4.475-4.475 4.475z"/>
        <path d="M12.75 10H11V7.5a.5.5 0 00-1 0V11h2.75a.5.5 0 000-1z"/>
    </g>
</svg>

<?xml version="1.0" encoding="iso-8859-1"?>
<!-- Generator: Adobe Illustrator 16.0.4, SVG Export Plug-In . SVG Version: 6.00 Build 0)  -->
<!DOCTYPE svg PUBLIC "-//W3C//DTD SVG 1.1//EN" "http://www.w3.org/Graphics/SVG/1.1/DTD/svg11.dtd">
<svg version="1.1" id="artwork" xmlns="http://www.w3.org/2000/svg" xmlns:xlink="http://www.w3.org/1999/xlink" x="0px" y="0px"
	 width="16px" height="16px" viewBox="0 0 16 16" style="enable-background:new 0 0 16 16;" xml:space="preserve">
<g>
	<path style="fill:#3D464D;" d="M10.978,5.048c0-0.011,0-0.016,0-0.025C10.735,2.209,8.376,0,5.5,0C4.504,0,3.571,0.266,2.766,0.729
		c0.176,0.004,0.35,0.026,0.521,0.068C3.468,0.844,3.64,0.85,3.824,0.822C3.928,0.807,4.048,0.79,4.175,0.79
		c0.232,0,0.434,0.056,0.613,0.168C4.817,0.977,4.93,1.009,5,0.971c0.142-0.075,0.332-0.059,0.479-0.028
		c0.045,0.01,0.091,0.02,0.136,0.022l0.05,0.003c0.038,0,0.05-0.007,0.05-0.007c0.025-0.103,0.089-0.219,0.26-0.256l0.061-0.007
		c0.031,0,0.184,0.009,0.223,0.188C6.297,0.85,6.352,0.805,6.436,0.805h0.082l0.09,0.076C6.66,0.938,6.683,1.005,6.674,1.075
		C6.657,1.191,6.562,1.247,6.512,1.278C6.41,1.383,6.249,1.385,6.121,1.38c-0.003,0.005-0.006,0.011-0.01,0.018l0.001,0.001
		L6.07,1.462L6.012,1.477C6.007,1.479,6.001,1.479,5.997,1.481L5.992,1.482C5.959,1.495,5.93,1.495,5.913,1.495l0-0.003
		C5.889,1.497,5.866,1.499,5.844,1.501L5.842,1.495C5.802,1.508,5.749,1.51,5.678,1.51v0.072L5.597,1.594
		C5.59,1.682,5.551,1.744,5.503,1.787c0.048,0.019,0.088,0.045,0.121,0.064c0.02,0.013,0.044,0.029,0.056,0.032
		C5.717,1.893,5.817,1.918,5.883,2c0.061-0.053,0.123-0.085,0.165-0.107l0.221-0.03L6.076,1.854
		c0.008-0.274,0.236-0.491,0.516-0.491c0.094,0,0.187,0.024,0.267,0.073C6.895,1.456,6.971,1.501,7.01,1.577l0.196-0.089l0.1,0.148
		c0.052,0.093,0.063,0.183,0.073,0.254c0.003,0.026,0.006,0.053,0.012,0.078C7.394,1.977,7.396,1.982,7.397,1.99
		C7.511,2.004,7.603,2.1,7.613,2.221C7.624,2.34,7.561,2.45,7.444,2.513C7.306,2.589,7.116,2.676,6.889,2.676H6.848
		C6.847,2.684,6.845,2.691,6.842,2.699C6.863,2.713,6.883,2.726,6.903,2.74l0.028,0.176L6.742,3.084
		C6.607,3.052,6.502,3.065,6.407,3.13C6.325,3.185,6.241,3.234,6.158,3.285c-0.164,0.1-0.318,0.192-0.451,0.312
		C5.693,3.673,5.666,3.741,5.626,3.801C5.589,3.854,5.543,3.902,5.487,3.944C5.47,3.957,5.453,3.969,5.435,3.981
		c-0.038,0.024-0.08,0.049-0.121,0.07c-0.05,0.027-0.097,0.054-0.133,0.081C5.17,4.165,5.174,4.21,5.187,4.289l0.008,0.06
		c0.031,0.316-0.158,0.37-0.217,0.379L4.932,4.731c-0.073,0-0.202-0.028-0.248-0.224C4.653,4.452,4.649,4.394,4.652,4.346
		c-0.047-0.017-0.091-0.031-0.13-0.035C4.456,4.381,4.339,4.442,4.19,4.394c-0.185-0.059-0.289,0.11-0.312,0.178L3.853,4.646
		C3.809,4.769,3.794,4.823,3.82,4.887c0.009,0.02,0.03,0.064,0.041,0.077C3.933,4.955,3.95,4.931,3.958,4.92
		c0.025-0.062,0.075-0.173,0.218-0.207c0.096-0.031,0.217-0.04,0.307,0.029c0.041,0.032,0.164,0.15,0.054,0.343
		C4.532,5.106,4.52,5.132,4.508,5.154c0.065,0.007,0.155,0.031,0.218,0.11c0.057,0.073,0.075,0.168,0.052,0.28L4.764,5.611
		C4.745,5.686,4.74,5.721,4.745,5.74c0.04,0.021,0.068,0.049,0.089,0.076l0.17,0.055c0.014,0,0.022-0.008,0.041-0.005
		c0.12-0.224,0.339-0.234,0.518-0.245l0.03,0.008c0.014-0.005,0.031,0,0.052,0h0.037l0.034,0.017c0.078,0.071,0.18,0.08,0.297,0.097
		c0.124,0.018,0.263,0.036,0.381,0.13c0.14,0.163,0.251,0.25,0.441,0.26c0.03,0.001,0.125,0.047,0.233,0.106
		c-0.707,0.57-1.27,1.311-1.624,2.16C5.431,8.278,5.417,8.17,5.401,8.164C5.149,8.062,5.042,7.855,4.945,7.673
		C4.92,7.625,4.895,7.577,4.868,7.531c-0.02-0.032-0.036-0.066-0.051-0.099C4.79,7.372,4.767,7.32,4.724,7.288
		c-0.036-0.028-0.12-0.13-0.077-0.216c0.027-0.051,0.026-0.114,0.026-0.186C4.672,6.766,4.67,6.618,4.807,6.497
		c0.114-0.1,0.144-0.215,0.096-0.351L4.799,6.202c-0.036,0.01-0.058,0.013-0.079,0.013c-0.04,0-0.095-0.01-0.148-0.052L4.544,6.151
		C4.434,6.097,4.266,6.01,4.189,5.801c-0.007-0.009-0.05-0.032-0.078-0.049C4.083,5.734,4.054,5.717,4.027,5.698
		c-0.144-0.1-0.312-0.144-0.489-0.189C3.475,5.491,3.411,5.475,3.347,5.455C3.251,5.426,3.155,5.378,3.043,5.306
		c-0.093-0.059-0.3-0.191-0.215-0.474c-0.004-0.001-0.016-0.013-0.03-0.029l-0.07,0.334L2.474,4.713
		c-0.016-0.026-0.033-0.05-0.049-0.076C2.356,4.533,2.273,4.408,2.267,4.244C2.225,4.16,2.212,4.076,2.229,3.99
		C2.007,3.813,2.016,3.568,2.022,3.407l0.003-0.089c0-0.116,0.065-0.191,0.115-0.232c0.011-0.027,0.024-0.055,0.039-0.084
		C2.227,2.915,2.285,2.84,2.342,2.77c0.05-0.062,0.099-0.122,0.128-0.184l0.05-0.101C2.463,2.354,2.492,2.217,2.511,2.127
		l0.011-0.055l0.136,0.024V2.023L2.532,2.034L2.525,2.027L2.429,2.02L2.354,1.913C2.341,1.887,2.327,1.852,2.207,1.85L2.031,1.858
		C1.893,1.866,1.762,1.872,1.666,1.938c-0.017,0.01-0.035,0.02-0.054,0.03c-0.036,0.018-0.067,0.029-0.099,0.04
		C1.478,2.02,1.44,2.031,1.401,2.04C1.382,2.044,1.364,2.05,1.346,2.055C1.271,2.124,1.187,2.16,1.111,2.187
		C0.414,3.109,0,4.256,0,5.5c0,2.876,2.209,5.235,5.022,5.479c0.01,0,0.016,0,0.025,0c0.243,2.796,2.595,4.996,5.453,4.996
		c3.019,0,5.475-2.455,5.475-5.475C15.975,7.643,13.774,5.29,10.978,5.048z M10.5,14.975c-2.467,0-4.475-2.007-4.475-4.475
		S8.033,6.025,10.5,6.025s4.475,2.007,4.475,4.475S12.967,14.975,10.5,14.975z"/>
	<path style="fill:#3D464D;" d="M12.75,10H11V7.5C11,7.225,10.776,7,10.5,7S10,7.225,10,7.5V11h2.75c0.276,0,0.5-0.224,0.5-0.5
		C13.25,10.225,13.026,10,12.75,10z"/>
</g>
</svg>
